overrides/.icons/dmg/acid.svg

<?xml version="1.0" encoding="UTF-8" standalone="no"?>
<svg
   viewBox="0 0 24 24"
   version="1.1"
   id="svg1"
   sodipodi:docname="acid.svg"
   inkscape:version="1.3.2 (091e20e, 2023-11-25, custom)"
   xmlns:inkscape="http://www.inkscape.org/namespaces/inkscape"
   xmlns:sodipodi="http://sodipodi.sourceforge.net/DTD/sodipodi-0.dtd"
   xmlns="http://www.w3.org/2000/svg"
   xmlns:svg="http://www.w3.org/2000/svg">
  <defs
     id="defs1">
    <inkscape:path-effect
       effect="fillet_chamfer"
       id="path-effect7"
       is_visible="true"
       lpeversion="1"
       nodesatellites_param="F,0,0,1,0,0,0,1 @ F,0,0,1,0,0,0,1 @ F,0,0,1,0,0,0,1 @ F,0,0,1,0,0,0,1 @ F,0,0,1,0,0,0,1 @ F,0,0,1,0,0,0,1 @ F,0,0,1,0,0,0,1 @ F,0,0,1,0,0,0,1 @ F,0,0,1,0,0,0,1 @ F,0,0,1,0,0,0,1"
       radius="0"
       unit="px"
       method="auto"
       mode="F"
       chamfer_steps="1"
       flexible="false"
       use_knot_distance="true"
       apply_no_radius="true"
       apply_with_radius="true"
       only_selected="false"
       hide_knots="false" />
    <inkscape:path-effect
       effect="fillet_chamfer"
       id="path-effect6"
       is_visible="true"
       lpeversion="1"
       nodesatellites_param="F,0,0,1,0,0,0,1 @ F,0,0,1,0,0,0,1 @ F,0,0,1,0,0,0,1 @ F,0,0,1,0,0,0,1 @ F,0,0,1,0,0,0,1 @ F,0,0,1,0,0,0,1 @ F,0,0,1,0,0,0,1 @ F,0,0,1,0,0,0,1 @ F,0,0,1,0,0,0,1 @ F,0,0,1,0,0,0,1"
       radius="0"
       unit="px"
       method="auto"
       mode="F"
       chamfer_steps="1"
       flexible="false"
       use_knot_distance="true"
       apply_no_radius="true"
       apply_with_radius="true"
       only_selected="false"
       hide_knots="false" />
  </defs>
  <sodipodi:namedview
     id="namedview1"
     pagecolor="#ffffff"
     bordercolor="#666666"
     borderopacity="1.0"
     inkscape:showpageshadow="2"
     inkscape:pageopacity="0.0"
     inkscape:pagecheckerboard="0"
     inkscape:deskcolor="#d1d1d1"
     inkscape:zoom="8.0000001"
     inkscape:cx="1.625"
     inkscape:cy="15.5625"
     inkscape:window-width="1360"
     inkscape:window-height="715"
     inkscape:window-x="-8"
     inkscape:window-y="-8"
     inkscape:window-maximized="1"
     inkscape:current-layer="svg1" />
  <!--! Font Awesome Free 6.5.2 by @fontawesome - https://fontawesome.com License - https://fontawesome.com/license/free (Icons: CC BY 4.0, Fonts: SIL OFL 1.1, Code: MIT License) Copyright 2024 Fonticons, Inc.-->
  <path
     id="path1"
     style="stroke:none;stroke-width:0.999997"
     d="m 12.02516,3.0441777 c 0.262508,0 0.505819,0.1141351 0.669887,0.3192182 0.99534,1.257848 4.555543,5.9363744 4.555543,8.4301911 0,2.898518 -2.352071,5.250591 -5.25059,5.250591 -2.8985173,0 -5.2505898,-2.352073 -5.2505898,-5.250591 0,-2.4938167 3.5602038,-7.1723431 4.5555438,-8.4301911 0.164067,-0.2050839 0.407378,-0.3192182 0.669887,-0.3192182 z m 1.99079,6.5699194 a 2.0128047,2.0128047 0 0 0 -2.014378,1.9546219 2.0128047,2.0128047 0 0 1 0.0048,0.0629 2.0128047,2.0128047 0 0 1 -2.0159832,2.008084 2.0128047,2.0128047 0 0 1 -2.0096601,-2.011232 h -0.00629 a 4.0257082,4.0257082 0 0 0 4.0208933,4.025609 4.0257082,4.0257082 0 0 0 4.005167,-3.736269 2.0128047,2.0128047 0 0 0 0,-0.0031 4.0257082,4.0257082 0 0 0 0.02516,-0.27676 4.0257082,4.0257082 0 0 0 0,-0.0094 h -0.0048 A 2.0128047,2.0128047 0 0 0 14.015954,9.6141209 Z" />
  <path
     id="path2"
     style="-inkscape-stroke:none;paint-order:stroke markers fill;stroke:none"
     d="M 3.46875 10.5 A 1.5 1.5 0 0 0 2.0039062 11.9375 C 2.0039071 11.943384 2.0039757 11.949215 2.0039062 11.955078 A 1.5 1.5 0 0 0 2 12.021484 A 1.5 1.5 0 0 0 2.0019531 12.050781 C 2.0018701 12.059905 2.0018365 12.068946 2.0019531 12.078125 C 2.079433 17.555425 6.5926012 21.976242 12.070312 21.9375 C 17.515237 21.898992 21.945193 17.46826 21.998047 12.035156 A 1.5 1.5 0 0 0 22 12 L 22 11.957031 A 1.5 1.5 0 0 0 22 11.953125 C 22.000008 11.947884 22 11.942743 22 11.9375 L 21.998047 11.9375 A 1.5 1.5 0 0 0 20.46875 10.5 A 1.5 1.5 0 0 0 19.003906 11.9375 L 19 11.9375 L 19 11.939453 C 18.9989 15.802559 15.9121 18.910176 12.048828 18.9375 C 8.1848892 18.96483 5.0546559 15.900758 5 12.037109 C 4.999527 12.003639 5.0019531 11.97086 5.0019531 11.9375 L 4.9980469 11.9375 A 1.5 1.5 0 0 0 3.46875 10.5 z " />
</svg>

<?xml version="1.0" encoding="UTF-8"?>
<svg id="svg1" version="1.1" viewBox="0 0 24 24" xmlns="http://www.w3.org/2000/svg">
 <!--! Font Awesome Free 6.5.2 by @fontawesome - https://fontawesome.com License - https://fontawesome.com/license/free (Icons: CC BY 4.0, Fonts: SIL OFL 1.1, Code: MIT License) Copyright 2024 Fonticons, Inc.-->
 <path id="path1" d="m12.025 3.0442c0.26251 0 0.50582 0.11414 0.66989 0.31922 0.99534 1.2578 4.5555 5.9364 4.5555 8.4302 0 2.8985-2.3521 5.2506-5.2506 5.2506-2.8985 0-5.2506-2.3521-5.2506-5.2506 0-2.4938 3.5602-7.1723 4.5555-8.4302 0.16407-0.20508 0.40738-0.31922 0.66989-0.31922zm1.9908 6.5699a2.0128 2.0128 0 0 0-2.0144 1.9546 2.0128 2.0128 0 0 1 0.0048 0.0629 2.0128 2.0128 0 0 1-2.016 2.0081 2.0128 2.0128 0 0 1-2.0097-2.0112h-0.00629a4.0257 4.0257 0 0 0 4.0209 4.0256 4.0257 4.0257 0 0 0 4.0052-3.7363 2.0128 2.0128 0 0 0 0-0.0031 4.0257 4.0257 0 0 0 0.02516-0.27676 4.0257 4.0257 0 0 0 0-0.0094h-0.0048a2.0128 2.0128 0 0 0-2.0049-2.0144z"/>
 <path id="path2" d="m3.4688 10.5a1.5 1.5 0 0 0-1.4648 1.4375c9e-7 0.005884 6.95e-5 0.011715 0 0.017578a1.5 1.5 0 0 0-0.0039062 0.066406 1.5 1.5 0 0 0 0.0019531 0.029297c-8.3e-5 0.009124-1.166e-4 0.018165 0 0.027344 0.07748 5.4773 4.5906 9.8981 10.068 9.8594 5.4449-0.038508 9.8749-4.4692 9.9277-9.9023a1.5 1.5 0 0 0 0.001953-0.035156v-0.042969a1.5 1.5 0 0 0 0-0.003906c8e-6 -0.005241 0-0.010382 0-0.015625h-0.001953a1.5 1.5 0 0 0-1.5293-1.4375 1.5 1.5 0 0 0-1.4648 1.4375h-0.003906v0.001953c-0.0011 3.8631-3.0879 6.9707-6.9512 6.998-3.8639 0.02733-6.9942-3.0367-7.0488-6.9004-4.73e-4 -0.03347 0.0019531-0.066249 0.0019531-0.099609h-0.0039062a1.5 1.5 0 0 0-1.5293-1.4375z" style="-inkscape-stroke:none;paint-order:stroke markers fill"/>
</svg>
